X: 1
T: Dancing the Baby
O: trad. O'Neill's
S: From Liz Donaldson
N: orig. O'Neill's 1001 #990
N: Based on T. Traub' transcription.
B: Version from the Concord Slow Scottish Jam session binder 2.
Z: 2015 John Chambers <jc:trillian.mit.edu>
R: reel
M: 4/4
K: D
L: 1/8
|:\
"D"FAA2 "A7"GAA2 | "D"FAA2 "A7"GFE2 |\
[1 "D"FAA2 "A7"GAA2 | "Bm"D2DE "D"FED2 :|\
[2 "Bm"D2DF "A"E2EF | "D"D2D2 D4 |]
|:\
"D"dFF2 AFF2 | "D"dFF2 "A7"GFE2 |\
[1 "D"dFF2 "F#m"AFF2 | "Bm"D2DE FED2 :|\
[2 "Bm"D2DF "A7"E2EF | "D"D2"(G)"D2 "D"D3B |]
|:\
"D"faa2 "A"gaa2 | "D"faa2 "A"gfe2 |\
[1 "D"faa2 "G"gbag | "E7"fed2 "A"cBA2 :|\
[2 "Bm"d2df "A7"e2ef | "D"d2"(G)"d2 "D"d4 |]
